svg/ricky/side/emotion/blush.svg

<?xml version="1.0" encoding="UTF-8"?>
<svg width="500px" height="600px" viewBox="0 0 500 600" version="1.1" xmlns="http://www.w3.org/2000/svg" xmlns:xlink="http://www.w3.org/1999/xlink">
    <title>blush</title>
    <defs>
        <polygon id="path-1" points="0.000258116429 0.084 173.375144 0.084 173.375144 192.102015 0.000258116429 192.102015"></polygon>
    </defs>
    <g id="blush" stroke="none" stroke-width="1" fill="none" fill-rule="evenodd">
        <g id="blushsideface" transform="translate(154.000000, 64.000000)">
            <g id="face" transform="translate(0.000000, 0.916000)">
                <mask id="mask-2" fill="white">
                    <use xlink:href="#path-1"></use>
                </mask>
                <g id="Clip-5"></g>
                <path d="M171.0488,137.3859 C170.9038,137.5149 170.7918,137.6879 170.7628,137.9199 C169.5318,147.5449 162.4278,154.9569 155.6848,161.4389 C155.3618,161.3509 154.9878,161.4199 154.7378,161.7529 C150.6488,167.2129 148.0458,174.3569 142.1718,178.2569 C135.6438,182.5909 127.3668,181.2159 120.2968,179.1599 C116.3598,178.0159 112.5028,176.5929 108.6288,175.2519 C104.2838,173.7479 99.9388,172.2429 95.5938,170.7399 C87.9338,168.0879 80.0708,165.5149 73.3788,160.8089 C67.2358,156.4899 62.1388,149.8729 61.3948,142.2619 C61.3828,142.1729 61.3778,142.0839 61.3618,141.9949 C61.3178,141.4609 61.2918,140.9229 61.2908,140.3799 C61.2898,139.5659 60.3218,139.3819 59.8728,139.8209 C59.3968,139.9429 58.9968,140.4619 59.3068,141.0249 C59.5348,141.4389 59.6708,141.8779 59.7478,142.3229 C59.7658,142.5039 59.7818,142.6849 59.8038,142.8639 C59.8698,144.2729 59.2888,145.7079 58.2988,146.7449 C57.4498,147.6329 56.3578,148.1419 55.1938,148.3689 C54.8838,148.1629 54.5218,148.0429 54.1368,148.0699 C50.5768,148.3219 47.9108,145.0959 45.7258,142.7269 C42.8618,139.6229 40.1358,136.3869 37.5838,133.0219 C37.3718,132.7409 37.1118,132.5119 36.8268,132.3409 C36.7138,132.1489 36.5928,131.9609 36.4838,131.7669 C36.4778,131.7539 36.4708,131.7409 36.4648,131.7299 C36.4578,131.7139 36.4458,131.7029 36.4388,131.6889 C35.0858,129.2899 33.9888,126.7679 33.5098,124.0379 C33.2798,122.7339 33.2598,121.3619 33.5138,120.0479 C33.6398,119.9319 33.7598,119.7999 33.8648,119.6369 C34.9288,117.9939 36.6938,116.9089 38.5938,116.5359 C39.3828,116.6849 40.1798,116.6429 40.9348,116.4469 C41.3288,116.4939 41.7208,116.5739 42.1028,116.6899 C43.9488,117.2489 45.7138,118.6349 47.1938,119.8439 C48.7968,121.1549 50.1478,122.6169 51.0018,124.5219 C51.3438,125.2829 52.2758,125.5909 53.0788,125.4599 C53.3598,125.5239 53.6348,125.5319 53.8978,125.4909 C54.0608,125.4899 54.2128,125.4489 54.3448,125.3649 C54.8958,125.1449 55.3398,124.6929 55.5368,124.0629 C55.8918,122.9389 56.0098,121.8259 55.9538,120.7339 C56.0118,120.5409 56.0698,120.3499 56.1278,120.1569 C56.2288,119.8239 56.0618,119.4419 55.7718,119.2519 C55.5668,118.1719 55.2138,117.1139 54.7688,116.0819 C53.4948,109.0589 50.8128,102.3309 46.8588,96.3719 L48.4808,96.9899 C49.7578,97.4769 51.0678,98.1199 52.4238,98.3399 C53.5468,98.5229 54.5978,98.2619 55.4128,97.6389 C56.1258,97.9639 56.9748,97.9949 57.6538,97.5309 C59.3028,96.4039 60.7298,95.0759 61.9418,93.5309 C62.3578,93.0809 62.7218,92.5839 63.0088,92.0319 C63.1158,91.8239 63.1878,91.6189 63.2388,91.4179 C64.3078,89.7129 65.1598,87.8719 65.7718,85.9539 C68.4618,83.5629 69.2838,79.6619 69.2138,76.0009 C71.9848,79.3199 76.0608,81.4739 80.3878,81.9489 C85.9858,82.5659 91.3788,79.9259 94.7518,75.4969 C95.7048,74.2459 96.4518,72.8709 97.0068,71.4229 C97.2968,70.9069 97.5738,70.3849 97.8358,69.8559 C100.0568,73.5319 103.5778,76.4919 107.8268,77.3909 C112.8888,78.4609 118.0038,76.0769 120.5138,71.5449 C121.0578,70.5619 121.4298,69.5039 121.6358,68.4209 C121.9758,70.3099 122.5738,71.9479 124.0668,73.4409 C124.7098,74.0849 125.5288,74.6559 126.4208,75.1059 C127.9138,76.4769 129.7778,77.3779 132.1528,77.4499 C135.0278,77.5379 137.4768,75.7819 138.8608,73.3479 C139.9168,71.4949 140.3028,69.4359 140.4228,67.3429 C142.4998,70.4139 146.1228,72.4679 149.8858,72.2169 C153.7968,71.9559 157.1798,69.4299 158.8378,66.0089 C159.6528,66.4509 160.5358,66.7559 161.4598,66.9009 C161.5418,66.9399 161.6198,66.9879 161.7028,67.0239 C157.4138,72.4069 157.7178,80.3679 159.0818,86.7709 C160.6858,94.2959 164.1268,101.2539 166.9408,108.3659 C168.5618,112.4669 169.9908,116.6519 170.7918,120.9959 C170.8088,121.0859 170.8468,121.1519 170.8828,121.2199 C171.4688,126.5889 171.5238,132.0049 171.0488,137.3859 M117.8828,188.8349 C117.1188,189.6029 115.9018,189.9819 114.8748,190.2389 C113.7788,190.5129 112.5168,190.6419 111.4578,190.1569 C110.3378,189.6439 109.8638,188.4459 109.1058,187.5539 C108.7648,187.1539 108.3698,186.8629 107.9388,186.5719 C107.2828,186.1279 107.3518,185.6849 107.3298,184.9359 C107.2488,182.1359 107.1678,179.3349 107.0868,176.5349 C110.5698,177.7419 114.0598,178.9279 117.5678,180.0449 C117.5608,180.1429 117.5658,180.2449 117.6028,180.3579 C118.0748,181.8179 118.4028,183.3169 118.5218,184.8479 C118.6188,186.1059 118.8598,187.8539 117.8828,188.8349 M106.4558,3.6919 C105.7528,4.2209 104.9318,4.6619 104.0518,4.9889 C104.8068,4.4849 105.6128,4.0489 106.4558,3.6919 M136.7938,73.4409 C136.8198,73.4129 136.8438,73.3809 136.8688,73.3539 C135.8128,74.7409 134.3268,75.6979 132.5438,75.7819 C134.1468,75.4079 135.6628,74.6719 136.7938,73.4409 M143.5778,68.4159 C142.5948,67.5849 141.7738,66.5579 141.1928,65.4049 C141.9158,66.4679 142.7138,67.4769 143.5778,68.4159 M171.4998,116.7339 C167.9888,103.8099 159.5948,92.0199 159.8558,78.3009 C159.9288,74.4409 160.8558,70.4299 163.4788,67.5049 C163.9128,67.5579 164.3518,67.5719 164.7848,67.5309 C168.1548,67.2119 170.7358,64.4909 171.9508,61.4929 C173.4148,57.8859 173.4808,53.5769 173.3078,49.7399 C173.1838,46.9779 172.7318,44.1559 171.6808,41.5809 C171.2988,40.2199 170.5818,39.0019 169.6528,37.9809 C168.0098,35.8019 165.7898,34.0499 163.2028,33.2119 C163.1918,33.1789 163.1758,33.1469 163.1628,33.1139 C163.6028,30.9639 163.8998,28.6319 162.8148,26.6339 C162.4218,25.9109 161.8798,25.3109 161.2418,24.8699 C160.7508,22.8709 159.9428,21.0879 158.5408,19.6219 C158.1398,18.7569 157.5718,17.9689 156.8198,17.3269 C155.5438,16.2409 153.8758,15.7079 152.2408,15.7999 C151.7428,14.6939 151.0348,13.6469 150.0818,12.6939 C146.8418,9.4529 140.6898,8.1849 136.7518,10.9739 C136.4588,11.1819 136.1648,11.3959 135.8678,11.6099 C135.1268,8.8609 133.1878,6.5939 130.7028,5.1849 C130.5088,5.0309 130.3208,4.8689 130.1138,4.7279 C128.0408,3.3169 125.3348,2.7479 122.9078,3.3419 C122.3388,2.7839 121.7068,2.2929 121.0288,1.8699 C120.5278,1.2759 119.8558,0.8029 119.0988,0.5489 C118.2878,0.2779 117.4348,0.2119 116.5788,0.2259 C114.6378,-0.0761 112.6148,0.0949 110.7378,0.8179 C110.5518,0.8489 110.3618,0.8679 110.1758,0.9029 C106.6948,1.5449 103.1608,3.0479 100.7708,5.6169 C99.3168,5.6349 97.9228,5.2839 96.8588,4.4499 C93.6818,1.9629 90.3698,0.9649 87.0858,1.5909 C83.6398,1.9059 81.1688,4.2479 78.7228,6.5529 C77.8328,7.2779 76.9448,8.0019 76.0548,8.7269 C73.5078,7.2979 70.9728,5.8089 68.3438,4.5479 C65.8218,3.3379 62.9878,2.4959 60.2258,3.3969 C54.9218,5.1239 52.9678,10.6539 51.7078,15.5959 C47.7108,13.1979 42.7218,12.5509 38.2418,13.8839 C36.7448,14.3279 35.3528,15.0189 34.0698,15.8689 C31.8058,16.8919 29.7668,18.4469 28.1488,20.6259 C25.7328,23.8799 24.7348,27.7929 25.1948,31.5389 C24.4958,31.8209 23.6748,31.9739 23.1378,32.1849 C22.0378,32.6149 20.9808,33.1419 19.9868,33.7819 C17.4968,35.3829 15.3888,37.6019 13.9208,40.1779 C12.6108,41.7549 11.5768,43.5879 10.9548,45.7559 C9.4898,50.8549 10.7248,55.7419 13.5088,59.8039 C10.0698,60.6649 6.8518,62.3929 4.4488,65.0269 C2.6178,67.0319 1.4078,69.4799 0.9058,72.0739 C-0.5772,76.0229 -0.0612,80.6739 3.2628,83.7259 C3.4388,83.8879 3.6228,84.0319 3.8048,84.1809 C0.4358,86.0269 -0.4942,90.9599 0.2308,94.5029 C0.9468,98.0079 3.1168,101.1139 6.0928,103.0259 C5.6358,103.5479 5.2248,104.1269 4.8668,104.7669 C4.8518,104.7889 4.8328,104.8089 4.8178,104.8319 C4.4978,105.3059 4.2808,105.8209 4.1368,106.3549 C2.4118,111.0709 3.8608,117.3849 8.7488,119.7739 C9.8908,120.3309 10.0048,120.1529 10.4608,120.8639 C11.5088,122.4949 12.7788,123.6699 14.1588,124.4929 C13.1808,125.6229 12.6878,127.2039 13.0818,128.9819 C13.0928,129.0309 13.1068,129.0779 13.1168,129.1259 C13.0818,129.4279 13.0448,129.7299 13.0308,130.0319 C12.8638,133.8679 14.5128,137.4439 16.4178,140.6709 C18.4938,144.1889 20.5868,147.8239 23.0118,151.1149 C25.1948,154.0779 28.1278,156.7399 31.9198,157.2339 C34.9428,157.6259 38.1968,156.1819 39.5588,153.4699 C40.2088,154.0279 40.9268,154.5109 41.6878,154.9089 C42.6948,156.3309 44.2088,157.5359 45.4238,158.4799 C47.6718,160.2269 50.2608,161.6009 53.0578,162.2099 C58.1568,163.3219 63.8288,161.6729 66.8688,157.2849 C67.6608,158.1469 68.4898,158.9719 69.3638,159.7389 C75.6908,165.2929 83.7278,168.3429 91.5658,171.0819 C96.1838,172.6969 100.7978,174.3469 105.4238,175.9619 C105.5038,178.7089 105.5828,181.4569 105.6618,184.2039 C105.6958,185.3649 105.5318,186.7179 106.4988,187.5569 C106.8858,187.8929 107.3588,188.1029 107.7178,188.4719 C108.1148,188.8789 108.3998,189.3749 108.7298,189.8349 C110.1128,191.7649 112.1288,192.3599 114.4298,192.0049 C116.4158,191.6989 118.9958,190.8189 119.8478,188.8209 C120.4008,187.5229 120.2708,185.9369 120.1448,184.5659 C120.0208,183.2239 119.7648,181.9039 119.3928,180.6109 C126.1778,182.6399 133.7518,184.0209 140.4228,181.0849 C147.7288,177.8699 150.8518,170.2849 155.1188,164.0469 C155.2698,164.0249 155.4198,163.9719 155.5588,163.8389 C162.2948,157.4089 169.4278,150.2619 171.7898,141.0539 C172.0838,140.9509 172.3378,140.7109 172.3858,140.3279 C173.3338,132.6649 173.1948,124.9329 172.0228,117.3019 C171.9688,116.9539 171.7528,116.7839 171.4998,116.7339" id="Fill-4" fill="#231F20" mask="url(#mask-2)"></path>
            </g>
            <path d="M139.3574,130.4562 C137.3164,127.7392 135.2234,125.0602 133.1694,122.3522 C131.1834,119.7342 128.7844,116.1842 130.6524,112.8622 C131.1724,111.9372 129.7514,111.1062 129.2304,112.0312 C127.5724,114.9792 128.5154,118.3592 130.2284,121.0502 C132.3114,124.3222 134.9114,127.3242 137.2644,130.4052 C138.6074,132.1652 143.2734,138.4042 138.6784,139.1682 C136.7324,139.4912 134.7044,138.6722 132.9204,137.9912 C131.0624,137.2812 129.2624,136.4372 127.5114,135.4942 C126.5784,134.9912 125.7464,136.4132 126.6804,136.9162 C129.4584,138.4122 132.4844,139.8642 135.5734,140.5842 C137.9924,141.1472 141.4724,141.0122 142.1284,138.0252 C142.7364,135.2632 140.9294,132.5492 139.3574,130.4562" id="Fill-7" fill="#231F20"></path>
            <g id="eyes" transform="translate(82.989441, 81.577408)" fill="#231F20">
                <path d="M13.739059,3.90029164 C8.48605903,5.21929164 3.70105903,8.19129164 0.206059027,12.3332916 C-0.472940973,13.1372916 0.686059027,14.3082916 1.37105903,13.4972916 C4.69705903,9.55529164 9.17405903,6.74529164 14.177059,5.48829164 C15.205059,5.22929164 14.769059,3.64129164 13.739059,3.90029164" id="Fill-9"></path>
                <path d="M72.789859,4.56429164 C68.717859,1.05629164 63.256859,0.353291643 58.085859,0.00229164325 C57.027859,-0.0697083567 57.031859,1.57829164 58.085859,1.64929164 C62.773859,1.96629164 67.920859,2.53829164 71.625859,5.72829164 C72.424859,6.41729164 73.594859,5.25729164 72.789859,4.56429164" id="Fill-11"></path>
                <path d="M27.717559,24.9783916 C26.272559,21.2173916 23.836559,16.5233916 19.144559,16.6353916 C13.696559,16.7653916 11.140559,22.1973916 9.71155903,26.6553916 C9.31855903,27.8833916 11.247559,28.4103916 11.640559,27.1873916 C12.769559,23.6663916 14.718559,18.7423916 19.144559,18.6353916 C22.811559,18.5483916 24.679559,22.6223916 25.788559,25.5093916 C26.245559,26.6993916 28.180559,26.1823916 27.717559,24.9783916" id="Fill-19"></path>
                <path d="M66.359159,12.3826916 C64.700159,12.0406916 62.934159,12.2956916 61.457159,13.1356916 C59.971159,13.9806916 58.956159,15.3946916 58.363159,16.9716916 C57.697159,18.7466916 57.621159,20.7346916 57.802159,22.6046916 C57.853159,23.1426916 58.224159,23.6046916 58.802159,23.6046916 C59.302159,23.6046916 59.854159,23.1446916 59.802159,22.6046916 C59.498159,19.4596916 60.044159,15.3266916 63.648159,14.3886916 C67.002159,13.5156916 69.957159,16.3746916 69.541159,19.7296916 C69.474159,20.2656916 70.048159,20.7296916 70.541159,20.7296916 C71.136159,20.7296916 71.474159,20.2676916 71.541159,19.7296916 C71.951159,16.4316916 69.638159,13.0606916 66.359159,12.3826916" id="Fill-21"></path>
            </g>
            <path d="M110.7031,114.131 C105.8511,113.946 101.0401,114.87 96.4891,116.94 C91.5971,119.164 93.7141,128.833 98.6641,126.582 C102.5981,124.794 106.5091,123.971 110.7031,124.131 C115.9711,124.331 115.9651,114.331 110.7031,114.131" id="Fill-13" fill="#F8C5D3"></path>
            <path d="M156.7724,109.1076 C152.4924,108.1136 148.2444,108.2186 144.0454,109.6846 C138.8244,111.5066 141.0464,121.1606 146.3004,119.3276 C149.0084,118.3816 151.7304,118.1036 154.5184,118.7516 C156.7624,119.2726 159.0954,117.9986 159.7344,115.2586 C160.3064,112.8016 159.0314,109.6316 156.7724,109.1076" id="Fill-15" fill="#F8C5D3"></path>
            <path d="M140.1133,151.914143 C139.5253,151.9082 139.1703,152.3802 139.1133,152.9142 C138.8563,155.3192 136.6113,157.2022 134.3093,157.5672 C131.2433,158.0562 129.0853,155.4722 127.3553,153.3362 C127.0123,152.9132 126.2983,152.9862 125.9403,153.3362 C125.5213,153.7462 125.6023,154.3332 125.9403,154.7502 C127.1743,156.2722 128.4913,157.8292 130.2453,158.7702 C131.7273,159.5652 133.3643,159.7972 135.0103,159.4642 C138.1923,158.8222 140.7683,156.1492 141.1133,152.9142 C141.1713,152.3722 140.6123,151.9192 140.1133,151.914143" id="Fill-17" fill="#231F20"></path>
        </g>
    </g>
</svg>

<svg width="500" height="600" xmlns="http://www.w3.org/2000/svg" xmlns:xlink="http://www.w3.org/1999/xlink"><defs><path id="a" d="M0 .084h173.375v192.018H0z"/></defs><g fill="none" fill-rule="evenodd"><g transform="translate(154 64.916)"><mask id="b" fill="#fff"><use xlink:href="#a"/></mask><path d="M171.049 137.386a.837.837 0 00-.286.534c-1.231 9.625-8.335 17.037-15.078 23.519-.323-.088-.697-.02-.947.314-4.09 5.46-6.692 12.604-12.566 16.504-6.528 4.334-14.805 2.959-21.875.903-3.937-1.144-7.794-2.567-11.668-3.908-4.345-1.504-8.69-3.01-13.035-4.512-7.66-2.652-15.523-5.225-22.215-9.931-6.143-4.32-11.24-10.936-11.984-18.547-.012-.09-.017-.178-.033-.267a20.1 20.1 0 01-.071-1.615c-.001-.814-.97-.998-1.418-.56-.476.123-.876.642-.566 1.205.228.414.364.853.44 1.298.019.18.035.362.057.54.066 1.41-.515 2.845-1.505 3.882-.85.888-1.941 1.397-3.105 1.624a1.69 1.69 0 00-1.057-.3c-3.56.253-6.226-2.973-8.411-5.342a131.582 131.582 0 01-8.142-9.705 2.67 2.67 0 00-.757-.681c-.113-.192-.234-.38-.343-.574a.63.63 0 00-.02-.037c-.006-.016-.018-.027-.025-.041-1.353-2.4-2.45-4.921-2.93-7.651-.23-1.304-.25-2.676.005-3.99.126-.116.246-.248.35-.411 1.065-1.643 2.83-2.728 4.73-3.101a5.351 5.351 0 002.34-.09 6.79 6.79 0 011.169.244c1.846.559 3.61 1.945 5.09 3.154 1.604 1.31 2.955 2.773 3.809 4.678.342.76 1.274 1.069 2.077.938.28.064.556.072.819.03a.83.83 0 00.447-.125 2.03 2.03 0 001.192-1.302 9.364 9.364 0 00.417-3.33l.174-.576c.1-.333-.066-.715-.356-.905-.205-1.08-.558-2.138-1.003-3.17a52.683 52.683 0 00-7.91-19.71l1.622.618c1.277.487 2.587 1.13 3.943 1.35 1.123.183 2.174-.078 2.989-.701.713.325 1.562.356 2.24-.108a19.098 19.098 0 004.289-4c.416-.45.78-.947 1.067-1.5.107-.207.179-.412.23-.613a24.074 24.074 0 002.533-5.464c2.69-2.391 3.512-6.292 3.442-9.953 2.77 3.319 6.847 5.473 11.174 5.948 5.598.617 10.99-2.023 14.364-6.452a16.375 16.375 0 002.255-4.074c.29-.516.567-1.038.829-1.567 2.22 3.676 5.742 6.636 9.99 7.535 5.063 1.07 10.178-1.314 12.688-5.846.544-.983.916-2.041 1.122-3.124.34 1.889.938 3.527 2.43 5.02.644.644 1.463 1.215 2.355 1.665 1.493 1.37 3.357 2.272 5.732 2.344 2.875.088 5.324-1.668 6.708-4.102 1.056-1.853 1.442-3.912 1.562-6.005 2.077 3.07 5.7 5.125 9.463 4.874 3.91-.261 7.294-2.787 8.952-6.208a8.143 8.143 0 002.622.892c.082.039.16.087.243.123-4.29 5.383-3.985 13.344-2.621 19.747 1.604 7.525 5.045 14.483 7.859 21.595 1.62 4.1 3.05 8.286 3.85 12.63.018.09.056.156.092.224a82.307 82.307 0 01.166 16.166m-53.166 51.449c-.764.768-1.981 1.147-3.008 1.404-1.096.274-2.358.403-3.417-.082-1.12-.513-1.594-1.711-2.352-2.603-.341-.4-.736-.691-1.167-.982-.656-.444-.587-.887-.61-1.636l-.242-8.401a436.591 436.591 0 0010.48 3.51.792.792 0 00.036.313c.472 1.46.8 2.959.919 4.49.097 1.258.338 3.006-.64 3.987M106.457 3.692a9.546 9.546 0 01-2.404 1.297c.755-.504 1.56-.94 2.404-1.297m30.338 69.749c.026-.028.05-.06.075-.087-1.056 1.387-2.542 2.344-4.325 2.428 1.603-.374 3.119-1.11 4.25-2.341m6.784-5.025a9.645 9.645 0 01-2.385-3.011 26.262 26.262 0 002.385 3.01m27.922 48.319c-3.511-12.924-11.905-24.714-11.644-38.433.073-3.86 1-7.871 3.623-10.796a6.07 6.07 0 001.306.026c3.37-.32 5.95-3.04 7.166-6.038 1.464-3.607 1.53-7.916 1.357-11.753-.124-2.762-.576-5.584-1.627-8.16-.382-1.36-1.1-2.578-2.028-3.6-1.643-2.178-3.863-3.93-6.45-4.768-.011-.033-.027-.065-.04-.098.44-2.15.737-4.482-.348-6.48a5.093 5.093 0 00-1.573-1.764c-.491-2-1.3-3.782-2.701-5.248a6.693 6.693 0 00-1.721-2.295 6.54 6.54 0 00-4.58-1.527 10.427 10.427 0 00-2.158-3.106c-3.24-3.241-9.392-4.51-13.33-1.72-.293.208-.587.422-.884.636-.741-2.75-2.68-5.016-5.165-6.425-.194-.154-.382-.316-.59-.457-2.072-1.411-4.778-1.98-7.205-1.386a10.98 10.98 0 00-1.88-1.472 4.368 4.368 0 00-1.93-1.321c-.81-.271-1.663-.337-2.52-.323-1.94-.302-3.963-.131-5.84.592-.186.03-.376.05-.562.085-3.481.642-7.015 2.145-9.405 4.714-1.454.018-2.848-.333-3.912-1.167-3.177-2.487-6.49-3.485-9.773-2.86-3.446.316-5.917 2.658-8.363 4.963l-2.668 2.174c-2.547-1.43-5.082-2.918-7.711-4.18-2.522-1.21-5.356-2.051-8.118-1.15-5.304 1.727-7.258 7.257-8.518 12.199-3.997-2.398-8.986-3.045-13.466-1.712-1.497.444-2.89 1.135-4.172 1.985a14.964 14.964 0 00-5.921 4.757c-2.416 3.254-3.414 7.167-2.954 10.913-.7.282-1.52.435-2.057.646-1.1.43-2.157.957-3.151 1.597a18.603 18.603 0 00-6.066 6.396 15.191 15.191 0 00-2.966 5.578c-1.465 5.099-.23 9.986 2.554 14.048-3.44.86-6.657 2.589-9.06 5.223a14.554 14.554 0 00-3.543 7.047c-1.483 3.949-.967 8.6 2.357 11.652.176.162.36.306.542.455C.435 86.027-.495 90.96.23 94.503c.716 3.505 2.886 6.61 5.862 8.523a10.177 10.177 0 00-1.226 1.74c-.015.023-.034.043-.05.066-.32.474-.536.989-.68 1.523-1.725 4.716-.276 11.03 4.612 13.419 1.142.557 1.256.379 1.712 1.09 1.048 1.63 2.318 2.806 3.698 3.629-.978 1.13-1.471 2.71-1.077 4.489.01.049.025.096.035.144-.035.302-.072.604-.086.906-.167 3.836 1.482 7.412 3.387 10.639 2.076 3.518 4.169 7.153 6.594 10.444 2.183 2.963 5.116 5.625 8.908 6.119 3.023.392 6.277-1.052 7.639-3.764a11.34 11.34 0 002.129 1.439c1.007 1.422 2.52 2.627 3.736 3.57 2.248 1.748 4.837 3.122 7.634 3.73 5.099 1.113 10.77-.536 13.81-4.924a32.623 32.623 0 002.496 2.454c6.327 5.554 14.364 8.604 22.202 11.343 4.618 1.615 9.232 3.265 13.858 4.88l.238 8.242c.034 1.16-.13 2.514.837 3.353.387.336.86.546 1.219.915.397.407.682.903 1.012 1.363 1.383 1.93 3.399 2.525 5.7 2.17 1.986-.306 4.566-1.186 5.418-3.184.553-1.298.423-2.884.297-4.255a21.42 21.42 0 00-.752-3.955c6.785 2.029 14.359 3.41 21.03.474 7.306-3.215 10.429-10.8 14.696-17.038a.766.766 0 00.44-.208c6.736-6.43 13.869-13.577 16.23-22.785a.867.867 0 00.597-.726c.948-7.663.809-15.395-.363-23.026-.054-.348-.27-.518-.523-.568" fill="#231F20" mask="url(#b)"/></g><path d="M293.357 194.456c-2.04-2.717-4.134-5.396-6.188-8.104-1.986-2.618-4.385-6.168-2.517-9.49.52-.925-.9-1.756-1.422-.83-1.658 2.947-.715 6.327.998 9.018 2.083 3.272 4.683 6.274 7.036 9.355 1.343 1.76 6.01 8 1.414 8.763-1.946.323-3.974-.496-5.758-1.177a46.191 46.191 0 01-5.409-2.497c-.933-.503-1.765.92-.83 1.422 2.777 1.496 5.803 2.948 8.892 3.668 2.42.563 5.9.428 6.555-2.559.608-2.762-1.199-5.476-2.77-7.569m-42.63-44.978a26.108 26.108 0 00-13.532 8.433c-.68.804.48 1.975 1.165 1.164a24.616 24.616 0 0112.806-8.01c1.027-.258.591-1.846-.439-1.587m59.052.664c-4.073-3.508-9.534-4.211-14.705-4.562-1.058-.072-1.054 1.576 0 1.647 4.688.317 9.835.889 13.54 4.079.8.689 1.97-.471 1.164-1.164m-45.072 20.414c-1.445-3.761-3.881-8.455-8.573-8.343-5.448.13-8.004 5.562-9.433 10.02-.393 1.228 1.536 1.755 1.929.532 1.129-3.521 3.078-8.445 7.504-8.552 3.667-.087 5.535 3.987 6.644 6.874.457 1.19 2.392.673 1.929-.531m38.642-12.596c-1.66-.342-3.425-.087-4.902.753-1.486.845-2.501 2.26-3.094 3.836-.666 1.775-.742 3.763-.561 5.633.05.538.422 1 1 1 .5 0 1.052-.46 1-1-.304-3.145.242-7.278 3.846-8.216 3.354-.873 6.309 1.986 5.893 5.341-.067.536.507 1 1 1 .595 0 .933-.462 1-1 .41-3.298-1.903-6.669-5.182-7.347" fill="#231F20"/><path d="M264.703 178.131a31.243 31.243 0 00-14.214 2.809c-4.892 2.224-2.775 11.893 2.175 9.642 3.934-1.788 7.845-2.611 12.04-2.451 5.267.2 5.261-9.8 0-10m46.068-5.023c-4.28-.994-8.528-.89-12.727.577-5.22 1.822-2.999 11.476 2.255 9.643 2.708-.946 5.43-1.224 8.218-.576 2.244.52 4.577-.753 5.216-3.493.572-2.457-.703-5.627-2.962-6.151" fill="#F8C5D3"/><path d="M294.113 215.914c-.588-.006-.943.466-1 1-.257 2.405-2.502 4.288-4.804 4.653-3.066.49-5.224-2.095-6.954-4.23-.343-.424-1.057-.35-1.415 0-.419.41-.338.996 0 1.413 1.234 1.522 2.551 3.08 4.305 4.02a6.994 6.994 0 004.765.694c3.182-.642 5.758-3.315 6.103-6.55.058-.542-.5-.995-1-1" fill="#231F20"/></g></svg>
